X: 1
T: Flitter Dance
M: 2/4
L: 1/8
R: polka
K: Ddor
|:FD DA|FD DE/F/|GF ED|CE A,2|
FD DA|FD DE/F/|GE DC|D2D2:|
|:FA AB/c/|dA AB/c/|dA AG|FG E2|
FA AB/c/|dA AB/c/|dc AG|F2D2:|
